packages/icons/raw/imported/SportCrossCountry.svg

<svg width="32" height="32" viewBox="0 0 32 32" fill="none" xmlns="http://www.w3.org/2000/svg">
<path d="M13.3949 22.5252L14.2856 20.2564C14.3734 20.0108 14.3533 19.7441 14.2392 19.5097L11.5918 14.2737C11.0445 13.1749 11.4999 11.8552 12.6258 11.336L18.5935 8.53261M21.3168 11.6192L22.2619 13.6352C22.3571 13.8305 22.5315 13.9884 22.737 14.0595L24.7625 14.7612C25.3349 14.9595 25.6393 15.5845 25.4378 16.1479C25.2363 16.7114 24.6013 17.0109 24.0289 16.8126L20.9907 15.7601C20.7852 15.6889 20.6108 15.531 20.5156 15.3357L19.1944 12.5725L15.6123 14.2865C15.3146 14.4269 15.2105 14.7642 15.3583 15.0428L17.1687 18.56C17.2976 18.7994 17.3176 19.0662 17.2298 19.3118L15.7602 23.4565M6.5 20.5919L23.1356 25.9267C23.5906 26.0843 24.104 25.9862 24.4395 25.6478C24.7749 25.3094 24.9764 24.746 24.4405 23.8459M22.9614 16.4822L8.90072 11.3505M24.296 7.15696C24.7901 8.17141 24.355 9.38795 23.3244 9.8742C22.2937 10.3604 21.0577 9.93225 20.5637 8.91781C20.0697 7.90336 20.5047 6.68682 21.5354 6.20057C22.566 5.71433 23.802 6.14252 24.296 7.15696Z" stroke="black" stroke-miterlimit="10" stroke-linecap="round" stroke-linejoin="round"/>
</svg>

<svg width="32" height="32" fill="none" xmlns="http://www.w3.org/2000/svg"><path d="m13.395 22.525.89-2.269a.96.96 0 0 0-.046-.746l-2.647-5.236a2.158 2.158 0 0 1 1.034-2.938l5.967-2.803m2.724 3.086.945 2.016c.095.196.27.353.475.425l2.026.701c.572.199.876.824.675 1.387a1.114 1.114 0 0 1-1.41.665l-3.037-1.053a.846.846 0 0 1-.475-.424l-1.322-2.764-3.582 1.715a.542.542 0 0 0-.254.756l1.81 3.517c.13.24.15.506.062.752l-1.47 4.144M6.5 20.592l16.636 5.335c.455.157.968.06 1.303-.28.336-.338.537-.901.002-1.801m-1.48-7.364-14.06-5.131m15.395-4.194a2.023 2.023 0 0 1-.972 2.717c-1.03.486-2.266.058-2.76-.956a2.023 2.023 0 0 1 .971-2.717c1.031-.487 2.267-.058 2.761.956Z" stroke="#000" stroke-miterlimit="10" stroke-linecap="round" stroke-linejoin="round"/></svg>
